Adwaita++/apps/scalable/chrome-store.svg

<svg enable-background="new" height="128" viewBox="0 0 128 128" width="128" xmlns="http://www.w3.org/2000/svg" xmlns:xlink="http://www.w3.org/1999/xlink">
  <clipPath id="b-3"/>
  <g transform="translate(0 -172)">
    <rect fill="#8d8d8d" height="44" rx="8" width="104" x="12" y="244"/>
    <path d="m12 192h104v88h-104z" fill="#e4e4e4"/>
    <g fill="#5f5f5f">
      <circle cx="50" cy="201" r="5"/>
      <circle cx="78" cy="201" r="5"/>
    </g>
    <path d="m50 200v-8c0-7.756 6.244-14 14-14s14 6.244 14 14v8" fill="none" stroke="#a1a1a1" stroke-linecap="round" stroke-linejoin="round" stroke-width="4"/>
    <g transform="matrix(.99999999539 0 0 .99999999539 .00000066756 171.99999198024)">
      <path d="m35.916016 108h15.300781l12.777344-21.839844h45.529299c-.76535-1.501566-1.60577-2.966085-2.51563-4.384765-.92074-1.434266-1.91137-2.821067-2.9707-4.15625-1.05963-1.335087-2.18542-2.615282-3.37305-3.837891-1.187523-1.222544-2.436589-2.386513-3.740232-3.484375-1.303256-1.097733-2.660091-2.12963-4.066406-3.091797-1.406715-.962328-2.859705-1.852853-4.355469-2.669922-1.495664-.817294-3.031775-1.558767-4.601562-2.222656-1.570032-.66376-3.172321-1.248297-4.800782-1.751953-1.628055-.503817-3.280956-.92687-4.951171-1.265625-1.670219-.338658-3.355101-.593457-5.050782-.763672-1.695886-.170021-3.399134-.254228-5.103515-.253906-1.20645.000032-2.413761.04162-3.617188.126953-1.699863.120432-3.392927.327539-5.072265.617187-1.679976.289488-3.343645.661511-4.986329 1.117188-1.6422.456288-3.261168.995311-4.849609 1.613281-1.588011.617423-3.143649 1.313081-4.662109 2.085938-1.519131.773114-2.999246 1.622051-4.433594 2.542968-1.434263.920724-2.821075 1.911386-4.15625 2.970703-1.335075 1.05964-2.615282 2.185409-3.837891 3.373047-1.222547 1.18751-2.386492 2.436576-3.484375 3.740235-1.09773 1.303272-2.129631 2.660091-3.091797 4.066406-.277965.438481-.548021.8814-.8125 1.328125-.040163.575684 8.186759 14.779039 14.925782 26.140625z" fill="#db4437"/>
      <path d="m13.058594 108h23.148437l-15.214843-26.097656a50.907979 50.907979 0 0 0 -1.759766 2.873047 50.907979 50.907979 0 0 0 -2.212891 4.582031 50.907979 50.907979 0 0 0 -1.746093 4.779297 50.907979 50.907979 0 0 0 -1.259766 4.93164 50.907979 50.907979 0 0 0 -.759766 5.031251 50.907979 50.907979 0 0 0 -.195312 3.90039z" fill="#0f9d58"/>
      <path d="m76.480469 108h38.480471c-.0179-.83768-.02873-1.67582-.08789-2.51172-.12027-1.69593-.32624-3.38509-.61524-5.06055-.28903-1.675286-.6604-3.334586-1.11523-4.972652-.45467-1.638324-.99146-3.253149-1.60742-4.83789-.61615-1.584323-1.31082-3.137415-2.08204-4.652344-.04665-.081469-.09351-.162672-.14062-.244141l-45.941406.230469z" fill="#ffcd40"/>
      <path d="m40.816406 108h46.371094a23.235971 23.235971 0 0 0 -23.193359-22.052734 23.235971 23.235971 0 0 0 -23.177735 22.052734z" fill="#f1f1f1"/>
      <path d="m45.722656 108h37.095703a18.588775 18.588775 0 0 0 -18.554687-17.632812 18.588775 18.588775 0 0 0 -18.541016 17.632812z" fill="#4285f4"/>
    </g>
    <g clip-path="url(#b-3)" transform="matrix(.58313384 0 0 .58313384 11.3277 255.4749)">
      <path d="m61.195312 123.85938-.080078.14062h2.884766a60 60 0 0 1 -2.804688-.14062z" fill="none" transform="matrix(1.4666667 0 0 1.4666667 2.133333 2.133333)"/>
    </g>
  </g>
</svg>

<svg xmlns="http://www.w3.org/2000/svg" xmlns:xlink="http://www.w3.org/1999/xlink" style="enable-background:new" width="128" height="128" version="1.0" viewBox="0 0 128 128">
 <title id="title4162">
  Adwaita Icon Template
 </title>
 <defs>
  <linearGradient id="linearGradient1494">
   <stop id="stop1490" offset="0" style="stop-color:#babdb6"/>
   <stop id="stop1492" offset="1" style="stop-color:#babdb6;stop-opacity:0"/>
  </linearGradient>
  <linearGradient id="linearGradient1496" x1="280" x2="280" y1="172" y2="20" gradientUnits="userSpaceOnUse" xlink:href="#linearGradient1494"/>
  <clipPath id="b">
   <use id="use5" width="100%" height="100%" x="0" y="0" overflow="visible" xlink:href="#a"/>
  </clipPath>
  <clipPath id="clipPath2166">
   <use id="use2164" width="100%" height="100%" x="0" y="0" overflow="visible" xlink:href="#a"/>
  </clipPath>
  <clipPath id="clipPath2170">
   <use id="use2168" width="100%" height="100%" x="0" y="0" overflow="visible" xlink:href="#a"/>
  </clipPath>
  <linearGradient id="linearGradient954" x1="121.86" x2="136.55" y1="49.804" y2="114.13" gradientTransform="matrix(0.68181818,0,0,0.68181818,-1.4545454,-1.4545454)" gradientUnits="userSpaceOnUse" xlink:href="#g"/>
  <clipPath id="b-3">
   <use id="use5-6" width="100%" height="100%" x="0" y="0" overflow="visible" xlink:href="#a"/>
  </clipPath>
  <clipPath id="clipPath2177">
   <use id="use2175" width="100%" height="100%" x="0" y="0" overflow="visible" xlink:href="#a"/>
  </clipPath>
  <clipPath id="clipPath2181">
   <use id="use2179" width="100%" height="100%" x="0" y="0" overflow="visible" xlink:href="#a"/>
  </clipPath>
 </defs>
 <g id="layer1" transform="translate(0,-172)">
  <g id="layer9">
   <rect style="fill:#8d8d8d" width="104" height="44" x="12" y="244" rx="8" ry="8"/>
   <rect style="fill:#e4e4e4" width="104" height="88" x="12" y="192"/>
   <g style="fill:#5f5f5f">
    <circle style="fill:#5f5f5f" cx="50" cy="201" r="5"/>
    <circle cx="78" cy="201" r="5" style="fill:#5f5f5f"/>
   </g>
   <path d="m 50,200 v -8 c 0,-7.756 6.244,-14 14,-14 7.756,0 14,6.244 14,14 v 8" style="fill:none;stroke:#a1a1a1;stroke-width:4;stroke-linecap:round;stroke-linejoin:round"/>
   <g transform="matrix(3.2201027,0,0,3.2201027,12.927206,-590.29521)">
    <path style="fill:#db4437" d="M 35.916016 108 L 51.216797 108 L 63.994141 86.160156 L 109.52344 86.160156 C 108.75809 84.65859 107.91767 83.194071 107.00781 81.775391 C 106.08707 80.341125 105.09644 78.954324 104.03711 77.619141 C 102.97748 76.284054 101.85169 75.003859 100.66406 73.78125 C 99.476537 72.558706 98.227471 71.394737 96.923828 70.296875 C 95.620572 69.199142 94.263737 68.167245 92.857422 67.205078 C 91.450707 66.24275 89.997717 65.352225 88.501953 64.535156 C 87.006289 63.717862 85.470178 62.976389 83.900391 62.3125 C 82.330359 61.64874 80.72807 61.064203 79.099609 60.560547 C 77.471554 60.05673 75.818653 59.633677 74.148438 59.294922 C 72.478219 58.956264 70.793337 58.701465 69.097656 58.53125 C 67.40177 58.361229 65.698522 58.277022 63.994141 58.277344 C 62.787691 58.277376 61.58038 58.318964 60.376953 58.404297 C 58.67709 58.524729 56.984026 58.731836 55.304688 59.021484 C 53.624712 59.310972 51.961043 59.682995 50.318359 60.138672 C 48.676159 60.59496 47.057191 61.133983 45.46875 61.751953 C 43.880739 62.369376 42.325101 63.065034 40.806641 63.837891 C 39.28751 64.611005 37.807395 65.459942 36.373047 66.380859 C 34.938784 67.301583 33.551972 68.292245 32.216797 69.351562 C 30.881722 70.411202 29.601515 71.536971 28.378906 72.724609 C 27.156359 73.912119 25.992414 75.161185 24.894531 76.464844 C 23.796801 77.768116 22.7649 79.124935 21.802734 80.53125 C 21.524769 80.969731 21.254713 81.41265 20.990234 81.859375 C 20.950071 82.435059 29.176993 96.638414 35.916016 108 z" transform="matrix(0.3105491,0,0,0.3105491,-4.0145322,236.73009)"/>
    <path style="fill:#0f9d58" d="M 13.058594 108 L 36.207031 108 L 20.992188 81.902344 A 50.907979 50.907979 0 0 0 19.232422 84.775391 A 50.907979 50.907979 0 0 0 17.019531 89.357422 A 50.907979 50.907979 0 0 0 15.273438 94.136719 A 50.907979 50.907979 0 0 0 14.013672 99.068359 A 50.907979 50.907979 0 0 0 13.253906 104.09961 A 50.907979 50.907979 0 0 0 13.058594 108 z" transform="matrix(0.3105491,0,0,0.3105491,-4.0145322,236.73009)"/>
    <path style="fill:#ffcd40" d="M 76.480469 108 L 114.96094 108 C 114.94304 107.16232 114.93221 106.32418 114.87305 105.48828 C 114.75278 103.79235 114.54681 102.10319 114.25781 100.42773 C 113.96878 98.752444 113.59741 97.093144 113.14258 95.455078 C 112.68791 93.816754 112.15112 92.201929 111.53516 90.617188 C 110.91901 89.032865 110.22434 87.479773 109.45312 85.964844 C 109.40647 85.883375 109.35961 85.802172 109.3125 85.720703 L 63.371094 85.951172 L 76.480469 108 z" transform="matrix(0.3105491,0,0,0.3105491,-4.0145322,236.73009)"/>
    <path style="fill:#f1f1f1" d="M 40.816406 108 L 87.1875 108 A 23.235971 23.235971 0 0 0 63.994141 85.947266 A 23.235971 23.235971 0 0 0 40.816406 108 z" transform="matrix(0.3105491,0,0,0.3105491,-4.0145322,236.73009)"/>
    <path style="fill:#4285f4" d="M 45.722656 108 L 82.818359 108 A 18.588775 18.588775 0 0 0 64.263672 90.367188 A 18.588775 18.588775 0 0 0 45.722656 108 z" transform="matrix(0.3105491,0,0,0.3105491,-4.0145322,236.73009)"/>
   </g>
   <g clip-path="url(#b)" transform="matrix(0.58313384,0,0,0.58313384,9.6233191,240.65991)">
    <linearGradient id="c" x1="29.337" x2="81.837" y1="75.021" y2="44.354" gradientUnits="userSpaceOnUse">
     <stop id="stop10" offset="0" stop-color="#A52714" stop-opacity=".6"/>
     <stop id="stop12" offset=".66" stop-color="#A52714" stop-opacity="0"/>
    </linearGradient>
   </g>
   <g clip-path="url(#b)" transform="matrix(0.58313384,0,0,0.58313384,9.6233191,240.65991)">
    <linearGradient id="d" x1="110.87" x2="52.538" y1="164.5" y2="130.33" gradientUnits="userSpaceOnUse">
     <stop id="stop23" offset="0" stop-color="#055524" stop-opacity=".4"/>
     <stop id="stop25" offset=".33" stop-color="#055524" stop-opacity="0"/>
    </linearGradient>
   </g>
   <g clip-path="url(#b)" transform="matrix(0.58313384,0,0,0.58313384,9.6233191,240.65991)">
    <path style="fill:url(#linearGradient954)" d="M 61.195312,123.85938 61.115234,124 H 64 a 60,60 0 0 1 -2.804688,-0.14062 z" transform="matrix(1.4666667,0,0,1.4666667,2.1333333,2.1333333)"/>
   </g>
   <g clip-path="url(#b-3)" transform="matrix(0.58313384,0,0,0.58313384,11.3277,255.4749)">
    <linearGradient id="linearGradient1841" x1="29.337" x2="81.837" y1="75.021" y2="44.354" gradientUnits="userSpaceOnUse">
     <stop id="stop10-5" offset="0" stop-color="#A52714" stop-opacity=".6"/>
     <stop id="stop12-6" offset=".66" stop-color="#A52714" stop-opacity="0"/>
    </linearGradient>
   </g>
   <g clip-path="url(#b-3)" transform="matrix(0.58313384,0,0,0.58313384,11.3277,255.4749)">
    <linearGradient id="linearGradient1847" x1="110.87" x2="52.538" y1="164.5" y2="130.33" gradientUnits="userSpaceOnUse">
     <stop id="stop23-1" offset="0" stop-color="#055524" stop-opacity=".4"/>
     <stop id="stop25-2" offset=".33" stop-color="#055524" stop-opacity="0"/>
    </linearGradient>
   </g>
   <g clip-path="url(#b-3)" transform="matrix(0.58313384,0,0,0.58313384,11.3277,255.4749)">
    <path style="fill:url(#linearGradient954)" d="M 61.195312,123.85938 61.115234,124 H 64 a 60,60 0 0 1 -2.804688,-0.14062 z" transform="matrix(1.4666667,0,0,1.4666667,2.1333333,2.1333333)"/>
   </g>
  </g>
 </g>
</svg>
